public/img/overview/icons/color/study.svg

<?xml version="1.0" encoding="UTF-8"?>
<svg width="60px" height="48px" viewBox="0 0 60 48" version="1.1" xmlns="http://www.w3.org/2000/svg" xmlns:xlink="http://www.w3.org/1999/xlink">
    <!-- Generator: Sketch 55.1 (78136) - https://sketchapp.com -->
    <title>colornoun_study_1979190 copy 2</title>
    <desc>Created with Sketch.</desc>
    <defs>
        <linearGradient x1="100%" y1="50%" x2="0%" y2="50%" id="linearGradient-1">
            <stop stop-color="#B7B0B4" offset="0%"></stop>
            <stop stop-color="#888077" offset="100%"></stop>
        </linearGradient>
        <path d="M29.9985832,0 C40.008501,5.2976728 50.0007084,10.6307746 60,15.9478986 L57.1925475,17.4400834 L57.1925475,35.9527614 C57.8577501,36.4056964 58.2934259,37.160125 58.2934259,38.0145884 C58.2934259,39.3997916 57.1486257,40.5224036 55.7360442,40.5224036 C54.3234627,40.5224036 53.1786625,39.3997916 53.1786625,38.0145884 C53.1786625,37.2073637 53.5675829,36.4890587 54.1718617,36.0305662 L54.1718617,19.0455019 L29.9985832,31.8957972 C20.0077926,26.5654741 10,21.2615491 0,15.9478986 L29.9985832,0 Z M11.4387929,26.2584231 L30,35.6658562 L50.0396713,25.5088572 L50.0396713,37.843001 C43.3571833,41.2226468 36.6746954,44.6050712 30,48 C23.3253046,44.6050712 16.6421082,41.2226468 9.95962029,37.843001 L9.95962029,25.5088572 L11.4387929,26.2584231 Z" id="path-2"></path>
    </defs>
    <g id="Frontend" stroke="none" stroke-width="1" fill="none" fill-rule="evenodd">
        <g id="noun_study_1979190-copy-2">
            <g id="Mask-4">
                <mask id="mask-3" fill="white">
                    <use xlink:href="#path-2"></use>
                </mask>
                <use id="Mask" fill="url(#linearGradient-1)" xlink:href="#path-2"></use>
            </g>
        </g>
    </g>
</svg>

<svg width="60" height="48" xmlns="http://www.w3.org/2000/svg" xmlns:xlink="http://www.w3.org/1999/xlink"><defs><linearGradient x1="100%" y1="50%" x2="0%" y2="50%" id="a"><stop stop-color="#B7B0B4" offset="0%"/><stop stop-color="#888077" offset="100%"/></linearGradient><path d="M29.999 0C40.009 5.298 50 10.63 60 15.948l-2.807 1.492v18.513a2.492 2.492 0 0 1 1.1 2.062c0 1.385-1.144 2.507-2.557 2.507s-2.557-1.122-2.557-2.507c0-.808.389-1.526.993-1.984V19.046l-24.173 12.85C20.008 26.566 10 21.262 0 15.948L29.999 0zm-18.56 26.258L30 35.666l20.04-10.157v12.334A9807.716 9807.716 0 0 0 30 48 9808.291 9808.291 0 0 0 9.96 37.843V25.509l1.479.75z" id="b"/></defs><use fill="url(#a)" xlink:href="#b" fill-rule="evenodd"/></svg>
